icons/urology_fill.svg

<svg width="48" height="48" viewBox="0 0 48 48" fill="none" xmlns="http://www.w3.org/2000/svg">
<path fill-rule="evenodd" clip-rule="evenodd" d="M9 6C7.34315 6 6 7.34315 6 9V39C6 40.6569 7.34315 42 9 42H39C40.6569 42 42 40.6569 42 39V9C42 7.34315 40.6569 6 39 6H9ZM18.8326 21.8165C19.867 20.782 20.2165 19.322 19.8809 18H19.9984C20.5518 18 20.9984 18.4471 20.9984 18.9983V26.6999C20.8288 26.7907 20.6665 26.8903 20.5129 26.9988C19.603 27.6414 19 28.5942 19 29.8572C19 29.9016 19.0005 29.9459 19.0016 29.9901L19.0019 30C19.0662 32.4238 20.7608 34.4288 22.9984 34.8968V37C22.9984 37.5523 23.4461 38 23.9984 38C24.5507 38 24.9984 37.5523 24.9984 37V34.8975C27.2376 34.4307 28.9338 32.4249 28.9981 30C28.9994 29.9526 29 29.9049 29 29.8572C29 28.3804 28.1755 27.3277 27 26.6991V18.9983C27 18.4471 27.4466 18 28 18H28.1176C27.782 19.322 28.1314 20.782 29.1658 21.8165C30.7279 23.3786 33.2606 23.3786 34.8227 21.8165C36.0809 20.5582 37.0032 18.8307 36.9983 16.9999C37.0032 15.169 36.081 13.4286 34.8228 12.1704C33.2607 10.6083 30.728 10.6083 29.1659 12.1704C28.1281 13.2082 27.7798 14.6746 28.121 16H28C26.3442 16 25 17.3404 25 18.9983V26.0694C24.3408 25.9768 23.6575 25.9769 22.9984 26.0696V18.9983C22.9984 17.3404 21.6542 16 19.9984 16H19.8774C20.2187 14.6746 19.8704 13.2082 18.8325 12.1704C17.2704 10.6083 14.7377 10.6083 13.1756 12.1704C11.9174 13.4286 10.9951 15.169 11 16.9999C10.9951 18.8307 11.9175 20.5582 13.1757 21.8165C14.7378 23.3786 17.2705 23.3786 18.8326 21.8165ZM24 33C22.4389 33 21.0749 31.7179 21.003 30H26.997C26.9251 31.7179 25.5611 33 24 33ZM17.9985 15.9839C17.4432 15.9839 16.993 15.5338 16.993 14.9785C16.993 14.4262 16.5453 13.9785 15.993 13.9785C15.4408 13.9785 14.993 14.4262 14.993 14.9785C14.993 15.7491 15.2831 16.452 15.7599 16.9839C15.2831 17.5159 14.993 18.2187 14.993 18.9893C14.993 19.5416 15.4408 19.9893 15.993 19.9893C16.5453 19.9893 16.993 19.5416 16.993 18.9893C16.993 18.4341 17.4432 17.9839 17.9985 17.9839C18.5507 17.9839 18.9985 17.5362 18.9985 16.9839C18.9985 16.4316 18.5507 15.9839 17.9985 15.9839ZM31.0054 14.9785C31.0054 15.5338 30.5552 15.9839 30 15.9839C29.4477 15.9839 29 16.4316 29 16.9839C29 17.5362 29.4477 17.9839 30 17.9839C30.5552 17.9839 31.0054 18.4341 31.0054 18.9893C31.0054 19.5416 31.4531 19.9893 32.0054 19.9893C32.5577 19.9893 33.0054 19.5416 33.0054 18.9893C33.0054 18.2187 32.7153 17.5159 32.2385 16.9839C32.7153 16.452 33.0054 15.7491 33.0054 14.9785C33.0054 14.4262 32.5577 13.9785 32.0054 13.9785C31.4531 13.9785 31.0054 14.4262 31.0054 14.9785Z" fill="black"/>
</svg>

<svg
  xmlns="http://www.w3.org/2000/svg"
  width="24"
  height="24"
  viewBox="0 0 24 24"
  fill="none"
  stroke="currentColor"
  stroke-width="2"
  stroke-linecap="round"
  stroke-linejoin="round"
>
  <path
    fill-rule="evenodd"
    d="M9 6a3 3 0 0 0-3 3v30a3 3 0 0 0 3 3h30a3 3 0 0 0 3-3V9a3 3 0 0 0-3-3zm9.833 15.817A4 4 0 0 0 19.88 18h.117c.554 0 1 .447 1 .998V26.7q-.255.135-.485.299c-.91.642-1.513 1.595-1.513 2.858q0 .067.002.133V30c.064 2.424 1.759 4.429 3.996 4.897V37a1 1 0 1 0 2 0v-2.102c2.24-.467 3.936-2.473 4-4.898l.002-.143c0-1.477-.825-2.53-2-3.158V19A1 1 0 0 1 28 18h.118a4 4 0 0 0 6.705 3.817c1.258-1.259 2.18-2.986 2.175-4.817.005-1.831-.917-3.571-2.175-4.83A4 4 0 0 0 28.12 16H28c-1.656 0-3 1.34-3 2.998v7.071a7.2 7.2 0 0 0-2.002 0V19a3 3 0 0 0-3-2.999h-.12a4 4 0 0 0-6.702-3.83C11.917 13.43 10.996 15.17 11 17c-.005 1.83.918 3.558 2.176 4.817a4 4 0 0 0 5.657 0M24 33c-1.561 0-2.925-1.282-2.997-3h5.994c-.072 1.718-1.436 3-2.997 3m-6.001-17.016c-.556 0-1.006-.45-1.006-1.005a1 1 0 1 0-2 0c0 .77.29 1.473.767 2.005a3 3 0 0 0-.767 2.005 1 1 0 0 0 2 0c0-.555.45-1.005 1.006-1.005a1 1 0 0 0 0-2m13.006-1.005c0 .555-.45 1.005-1.005 1.005a1 1 0 1 0 0 2c.555 0 1.005.45 1.005 1.005a1 1 0 1 0 2 0c0-.77-.29-1.473-.767-2.005a3 3 0 0 0 .767-2.006 1 1 0 1 0-2 0"
    clip-rule="evenodd"
  />
</svg>
